X:19
T:Polska efter Larsh\"oga Jonke / Ante Sundin
S:Svenska L\aa{}tar
O:Sweden
R:Polska
M:3/4
L:1/16
K:A
(ef)ed (cB)cd e2fg | a2(af) b2(bg) a4 | \
(ef)ed (cd)ef =g2ag | f2e^d ([d2f2][e2e2])(e4 |\
[ee]f)ed (cB)cd e2fg | a2(af) b2(bg) a4 |\
(ef)ed (cd)ef =g2ag | f2e^d  ([d2f2][e2e2]) (e4|:\
e2)a2  B2(aB) c2(ac) | d2(fa) (Ac)(ec)([E4B4] |\
B2)(B2c2)(c2d2)d2 | c2e2 (EG)BG (A4 |\
A4) B4 c2Bc | d2ed (cd)ef g2a2 | \
(ba)gf (ef)ed (cB)cd | (EG)BG [A8A8] :|
